!! 00000] TT[WS
!!!OTL: Puopuo bianda xifu
!!!ARE: Asia, China, Shanxi Dingxiang
!! Ethnic Group: Han
!! WII, 136 (2)
!!!SCT: J0610
!!!YEM: Copyright 1995, estate of Helmut Schaffrath.
**kern
*ICvox
*Ivox
*M2/4
*k[f#c#g#]
*A:
{16cc#
8cc#
16cc#
4b
=1
16cc#
16ee
16cc#
16b
4a
=2
16b
8b
16cc#
16b
8b
16a
=3
16b
16a
16g#
16f#
4e}
=4
{16e
8e
16f#
16b
8b
16cc#
=5
16b
16cc#
16b
16a
4f#}
=6
{16f#
8f#
16b
16b
8a
16f#
=7
16e
16c#
16e
16f#
16a
16b
16g#
16f#
=8
16e
16f#
16e
16c#
4B}
==
!!!AGN: Xiaodiao. Qingge, Aisu
!!!ONB: ESAC (Essen Associative Code) Database: CHINA
!!!AMT: simple duple
!!!AIN: vox
!!!EED: Helmut Schaffrath
!!!EEV: 1.0
*-
